src/resources/svg/cup_transparent_white.svg

<svg width="220" height="180" viewBox="0 0 220 180" fill="none" xmlns="http://www.w3.org/2000/svg">
  <path fill-rule="evenodd" clip-rule="evenodd" d="M220 0H0V180H220V0ZM191.477 13H28.5227C23.8348 13 20 16.8361 20 21.5255C20 63.7175 49.3668 99.5881 88.9505 109.145C90.1056 109.424 90.9436 110.41 91.2097 111.568L95.2275 128.134C95.8381 130.651 93.9309 133.077 91.3402 133.077H82.2169C77.3509 133.077 73.013 136.341 71.7235 141.062L68.3817 153.419C67.5029 156.683 68.147 160.122 70.2579 162.803C72.3095 165.484 75.4746 167 78.8751 167H143.182C146.583 167 149.69 165.484 151.799 162.803C153.852 160.122 154.496 156.683 153.617 153.419L150.275 141.062C148.986 136.341 144.706 133.077 139.782 133.077H131.617C129.022 133.077 127.114 130.644 127.732 128.124L131.776 111.627C132.176 110.034 133.268 108.616 134.847 108.163C172.482 97.3647 200 62.6509 200 21.5255C200 16.8361 196.164 13 191.477 13Z" fill="white"/>
  <mask id="path-2-outside-1_3743_18497" maskUnits="userSpaceOnUse" x="16" y="9" width="188" height="162" fill="black">
    <rect fill="white" x="16" y="9" width="188" height="162"/>
    <path fill-rule="evenodd" clip-rule="evenodd" d="M28.5227 13H191.477C196.164 13 200 16.8361 200 21.5255C200 62.6509 172.482 97.3647 134.847 108.163C133.268 108.616 132.176 110.034 131.776 111.627V111.627L127.732 128.124C127.114 130.644 129.022 133.077 131.617 133.077H139.782C144.706 133.077 148.986 136.341 150.275 141.062L153.617 153.419C154.496 156.683 153.852 160.122 151.799 162.803C149.69 165.484 146.583 167 143.182 167H78.8751C75.4746 167 72.3095 165.484 70.2579 162.803C68.147 160.122 67.5029 156.683 68.3817 153.419L71.7235 141.062C73.013 136.341 77.3509 133.077 82.2169 133.077H91.3402C93.9309 133.077 95.8381 130.651 95.2275 128.134L91.2097 111.568V111.568C90.9436 110.41 90.1056 109.424 88.9505 109.145C49.3668 99.5881 20 63.7175 20 21.5255C20 16.8361 23.8348 13 28.5227 13Z"/>
  </mask>
  <path d="M150.275 141.062L154.136 140.018L154.134 140.008L150.275 141.062ZM153.617 153.419L157.479 152.379L157.478 152.375L153.617 153.419ZM151.799 162.803L154.943 165.276L154.959 165.255L154.976 165.234L151.799 162.803ZM70.2579 162.803L73.4347 160.372L73.4179 160.351L73.4008 160.329L70.2579 162.803ZM68.3817 153.419L64.5204 152.375L64.5192 152.379L68.3817 153.419ZM71.7235 141.062L67.8648 140.008L67.8622 140.018L71.7235 141.062ZM95.2275 128.134L91.3402 129.077L95.2275 128.134ZM127.732 128.124L123.847 127.172L127.732 128.124ZM88.9505 109.145L89.8893 105.257L88.9505 109.145ZM134.847 108.163L135.95 112.008L134.847 108.163ZM191.477 9H28.5227V17H191.477V9ZM204 21.5255C204 14.6279 198.374 9 191.477 9V17C193.954 17 196 19.0443 196 21.5255H204ZM135.95 112.008C175.258 100.73 204 64.4783 204 21.5255H196C196 60.8234 169.705 94 133.744 104.318L135.95 112.008ZM131.617 129.077L135.661 112.579L127.891 110.674L123.847 127.172L131.617 129.077ZM139.782 129.077H131.617V137.077H139.782V129.077ZM154.134 140.008C152.367 133.539 146.501 129.077 139.782 129.077V137.077C142.911 137.077 145.604 139.142 146.416 142.116L154.134 140.008ZM157.478 152.375L154.136 140.018L146.414 142.106L149.756 154.463L157.478 152.375ZM154.976 165.234C157.803 161.54 158.673 156.812 157.479 152.379L149.754 154.459C150.318 156.554 149.9 158.704 148.623 160.372L154.976 165.234ZM143.182 171C147.817 171 152.08 168.916 154.943 165.276L148.656 160.33C147.3 162.053 145.348 163 143.182 163V171ZM78.8751 171H143.182V163H78.8751V171ZM67.0812 165.234C69.9161 168.939 74.2734 171 78.8751 171V163C76.6758 163 74.7029 162.03 73.4347 160.372L67.0812 165.234ZM64.5192 152.379C63.3246 156.817 64.194 161.567 67.1151 165.277L73.4008 160.329C72.0999 158.676 71.6813 156.549 72.2441 154.459L64.5192 152.379ZM67.8622 140.018L64.5204 152.375L72.243 154.463L75.5848 142.106L67.8622 140.018ZM82.2169 129.077C75.5689 129.077 69.635 133.527 67.8648 140.008L75.5821 142.116C76.3909 139.155 79.1328 137.077 82.2169 137.077V129.077ZM91.3402 129.077H82.2169V137.077H91.3402V129.077ZM87.3224 112.511L91.3402 129.077L99.1148 127.191L95.097 110.626L87.3224 112.511ZM16 21.5255C16 65.6019 46.6681 103.052 88.0117 113.034L89.8893 105.257C52.0654 96.1248 24 61.8332 24 21.5255H16ZM28.5227 9C21.6244 9 16 14.6282 16 21.5255H24C24 19.044 26.0452 17 28.5227 17V9ZM91.3402 137.077C96.5215 137.077 100.336 132.226 99.1148 127.191L91.3402 129.077L91.3402 129.077V137.077ZM123.847 127.172C122.611 132.212 126.427 137.077 131.617 137.077V129.077L131.617 129.077L123.847 127.172ZM95.1081 110.673C94.564 108.305 92.7679 105.952 89.8893 105.257L88.0117 113.034C87.7401 112.968 87.5536 112.828 87.4528 112.717C87.3597 112.614 87.3254 112.526 87.3113 112.464L95.1081 110.673ZM133.744 104.318C130.444 105.265 128.545 108.069 127.896 110.652L135.655 112.602C135.718 112.351 135.825 112.166 135.913 112.063C135.991 111.972 136.011 111.991 135.95 112.008L133.744 104.318Z" fill="black" fill-opacity="0.08" mask="url(#path-2-outside-1_3743_18497)"/>
  <path fill-rule="evenodd" clip-rule="evenodd" d="M125.184 167H143.184C146.585 167 149.692 165.484 151.801 162.803C153.854 160.122 154.498 156.683 153.619 153.419L150.277 141.062C148.988 136.341 144.708 133.077 139.784 133.077H131.619C129.024 133.077 127.116 130.644 127.734 128.124L131.778 111.627C132.178 110.034 133.27 108.616 134.849 108.163C172.484 97.3647 200.002 62.6509 200.002 21.5255C200.002 16.8361 196.166 13 191.479 13H172.479C177.166 13 181.001 16.8361 181.001 21.5255C181.001 59.004 158.147 91.1576 125.61 104.738C124.428 105.232 123.526 106.236 123.203 107.476L117.827 128.066C117.165 130.601 119.078 133.077 121.697 133.077H121.784C126.708 133.077 130.987 136.341 132.277 141.062L135.618 153.419C136.497 156.683 135.853 160.122 133.801 162.803C131.691 165.484 128.584 167 125.184 167Z" fill="black" fill-opacity="0.03"/>
</svg>

<svg version="1.1" xmlns="http://www.w3.org/2000/svg" xmlns:xlink="http://www.w3.org/1999/xlink" x="0px" y="0px"
	 viewBox="0 0 220 180" style="enable-background:new 0 0 220 180;" xml:space="preserve">
<style type="text/css">
	.st0{fill-rule:evenodd;clip-rule:evenodd;fill:#FFFFFF;}
	.st1{fill:#FFFFFF;filter:url(#Adobe_OpacityMaskFilter);}
	.st2{fill-rule:evenodd;clip-rule:evenodd;}
	.st3{mask:url(#path-2-outside-1_3714_18071_1_);fill:#777777;fill-opacity:0.15;}
	.st4{fill-rule:evenodd;clip-rule:evenodd;filter:url(#Adobe_OpacityMaskFilter_1_);}
	.st5{mask:url(#mask0_3714_18071_1_);}
	.st6{fill-rule:evenodd;clip-rule:evenodd;fill-opacity:0.1;}
</style>
<path class="st0" d="M0,0h220v180H0V0z M191.5,13h-163c-4.7,0-8.5,3.8-8.5,8.5c0,42.9,30.3,79.2,70.9,88.1c0.1,0.6,0.1,1.3,0.3,2
	l5.2,21.5H82.2c-4.9,0-9.2,3.3-10.5,8l-3.3,12.4c-0.9,3.3-0.2,6.7,1.9,9.4c2.1,2.7,5.2,4.2,8.6,4.2h64.3c3.4,0,6.5-1.5,8.6-4.2
	c2.1-2.7,2.7-6.1,1.8-9.4l-3.3-12.4c-1.3-4.7-5.6-8-10.5-8h-13.3l5.3-21.4c0.2-1,0.4-1.9,0.4-2.7c39-9.9,67.8-45.3,67.8-87.4
	C200,16.8,196.2,13,191.5,13z"/>
<defs>
	<filter id="Adobe_OpacityMaskFilter" filterUnits="userSpaceOnUse" x="16" y="9" width="188" height="162">
		<feColorMatrix  type="matrix" values="1 0 0 0 0  0 1 0 0 0  0 0 1 0 0  0 0 0 1 0"/>
	</filter>
</defs>
<mask maskUnits="userSpaceOnUse" x="16" y="9" width="188" height="162" id="path-2-outside-1_3714_18071_1_">
	<rect x="16" y="9" class="st1" width="188" height="162"/>
	<path class="st2" d="M28.5,13h163c4.7,0,8.5,3.8,8.5,8.5c0,41.1-27.5,75.8-65.2,86.6c-1.6,0.5-2.7,1.9-3.1,3.5l-4,16.5
		c-0.6,2.5,1.3,5,3.9,5h8.2c4.9,0,9.2,3.3,10.5,8l3.3,12.4c0.9,3.3,0.2,6.7-1.8,9.4c-2.1,2.7-5.2,4.2-8.6,4.2H78.9
		c-3.4,0-6.6-1.5-8.6-4.2c-2.1-2.7-2.8-6.1-1.9-9.4l3.3-12.4c1.3-4.7,5.6-8,10.5-8h9.1c2.6,0,4.5-2.4,3.9-4.9l-4-16.6
		c-0.3-1.2-1.1-2.1-2.3-2.4c-39.6-9.6-69-45.4-69-87.6C20,16.8,23.8,13,28.5,13z"/>
</mask>
<path class="st3" d="M150.3,141.1l3.9-1l0,0L150.3,141.1z M153.6,153.4l3.9-1l0,0L153.6,153.4z M151.8,162.8l3.1,2.5l0,0l0,0
	L151.8,162.8z M70.3,162.8l3.2-2.4l0,0l0,0L70.3,162.8z M68.4,153.4l-3.9-1l0,0L68.4,153.4z M71.7,141.1l-3.9-1.1l0,0L71.7,141.1z
	 M95.2,128.1l-3.9,0.9L95.2,128.1z M127.7,128.1l-3.9-1L127.7,128.1z M89,109.1l0.9-3.9L89,109.1z M134.8,108.2l1.1,3.8L134.8,108.2
	z M191.5,9h-163v8h163V9z M204,21.5c0-6.9-5.6-12.5-12.5-12.5v8c2.5,0,4.5,2,4.5,4.5H204z M135.9,112c39.3-11.3,68.1-47.5,68.1-90.5
	h-8c0,39.3-26.3,72.5-62.3,82.8L135.9,112z M131.6,129.1l4-16.5l-7.8-1.9l-4,16.5L131.6,129.1z M139.8,129.1h-8.2v8h8.2V129.1z
	 M154.1,140c-1.8-6.5-7.6-10.9-14.4-10.9v8c3.1,0,5.8,2.1,6.6,5L154.1,140z M157.5,152.4l-3.3-12.4l-7.7,2.1l3.3,12.4L157.5,152.4z
	 M155,165.2c2.8-3.7,3.7-8.4,2.5-12.9l-7.7,2.1c0.6,2.1,0.1,4.2-1.1,5.9L155,165.2z M143.2,171c4.6,0,8.9-2.1,11.8-5.7l-6.3-4.9
	c-1.4,1.7-3.3,2.7-5.5,2.7V171z M78.9,171h64.3v-8H78.9V171z M67.1,165.2c2.8,3.7,7.2,5.8,11.8,5.8v-8c-2.2,0-4.2-1-5.4-2.6
	L67.1,165.2z M64.5,152.4c-1.2,4.4-0.3,9.2,2.6,12.9l6.3-4.9c-1.3-1.7-1.7-3.8-1.2-5.9L64.5,152.4z M67.9,140l-3.3,12.4l7.7,2.1
	l3.3-12.4L67.9,140z M82.2,129.1c-6.6,0-12.6,4.4-14.4,10.9l7.7,2.1c0.8-3,3.6-5,6.6-5V129.1z M91.3,129.1h-9.1v8h9.1V129.1z
	 M87.3,112.5l4,16.6l7.8-1.9l-4-16.6L87.3,112.5z M16,21.5c0,44.1,30.7,81.5,72,91.5l1.9-7.8C52.1,96.1,24,61.8,24,21.5H16z M28.5,9
	C21.6,9,16,14.6,16,21.5h8c0-2.5,2-4.5,4.5-4.5V9z M91.3,137.1c5.2,0,9-4.9,7.8-9.9l-7.8,1.9V137.1z M123.8,127.2
	c-1.2,5,2.6,9.9,7.8,9.9v-8L123.8,127.2z M95.1,110.7c-0.5-2.4-2.3-4.7-5.2-5.4L88,113c-0.3-0.1-0.5-0.2-0.6-0.3
	c-0.1-0.1-0.1-0.2-0.1-0.3L95.1,110.7z M133.7,104.3c-3.3,0.9-5.2,3.8-5.8,6.3l7.8,1.9c0.1-0.3,0.2-0.4,0.3-0.5
	c0.1-0.1,0.1-0.1,0-0.1L133.7,104.3z"/>
<defs>
	<filter id="Adobe_OpacityMaskFilter_1_" filterUnits="userSpaceOnUse" x="117.7" y="13" width="82.3" height="154">
		<feColorMatrix  type="matrix" values="1 0 0 0 0  0 1 0 0 0  0 0 1 0 0  0 0 0 1 0"/>
	</filter>
</defs>
<mask maskUnits="userSpaceOnUse" x="117.7" y="13" width="82.3" height="154" id="mask0_3714_18071_1_">
	<path class="st4" d="M28.5,13h163c4.7,0,8.5,3.8,8.5,8.5c0,41.1-27.5,75.8-65.2,86.6c-1.6,0.5-2.7,1.9-3.1,3.5l-4,16.5
		c-0.6,2.5,1.3,5,3.9,5h8.2c4.9,0,9.2,3.3,10.5,8l3.3,12.4c0.9,3.3,0.2,6.7-1.8,9.4c-2.1,2.7-5.2,4.2-8.6,4.2H78.9
		c-3.4,0-6.6-1.5-8.6-4.2c-2.1-2.7-2.8-6.1-1.9-9.4l3.3-12.4c1.3-4.7,5.6-8,10.5-8h9.1c2.6,0,4.5-2.4,3.9-4.9l-4-16.6
		c-0.3-1.2-1.1-2.1-2.3-2.4c-39.6-9.6-69-45.4-69-87.6C20,16.8,23.8,13,28.5,13z"/>
</mask>
<g class="st5">
	<path class="st6" d="M125.2,167h18c3.4,0,6.5-1.5,8.6-4.2c2.1-2.7,2.7-6.1,1.8-9.4l-3.3-12.4c-1.3-4.7-5.6-8-10.5-8h-8.2
		c-2.6,0-4.5-2.4-3.9-5l4-16.5c0.4-1.6,1.5-3,3.1-3.5C172.5,97.4,200,62.7,200,21.5c0-4.7-3.8-8.5-8.5-8.5h-19
		c4.7,0,8.5,3.8,8.5,8.5c0,37.5-22.9,69.6-55.4,83.2c-1.2,0.5-2.1,1.5-2.4,2.7l-5.4,20.6c-0.7,2.5,1.3,5,3.9,5h0.1
		c4.9,0,9.2,3.3,10.5,8l3.3,12.4c0.9,3.3,0.2,6.7-1.8,9.4C131.7,165.5,128.6,167,125.2,167z"/>
</g>
</svg>
